X:128
T:Granby's Jigg
M:6/8
L:1/8
B:Thompson's Compleat Collection of 200 Favourite Country Dances, vol. 2 (London, 1765)
Z:Transcribed and edited by Flynn Titford-Mock, 2006-9
Z:abc's:AK/Fiddler's Companion
K:Bb
F | BdB fdB | ecA dBF | BdB fdB | cAF F2F | BdB cec | dfd =ege | faf gbg | cf=e f2 :|
|: f | fgf fed | dcB BAG | gag gfe | edc cBA | aba agf | fed dcB | (B/c/d)B F2e | dec B2 :|

